X:102
T:Seneca Square Dance
C:Traditional
M:4/4
L:1/8
Q:1/8=460
K:G
GA|:"G"[B4D4][B2D2]AB|d2B2BAG2|BGBcd3B|"D7"ABAGE2D2|
"G"[B4D4][B2D2]AB|d2B2BAG2|"D7"ABAGE2F2|1"G"[G4G,4][G2G,2]GA:|2"G"[G4G,4][G2G,2]ef|
|:"G"g4g3e|d2B4Bd|g4gfga|"Em"be2ee3f|
"C"gabag3e|"G"dged BAG2|"D7"ABAGE2F2|1"G"[G4G,4][G2G,2]GA:|2"G"[G4G,4][G2G,2]|
